X: 20392
Q: "Jig time."
M: 9/8
L: 1/8
K: D
|:\
|:\
ddd ded cBA | ded def g2e |
ddd ded cBA | BEE EFA B2A :|\
|:\
dDD dcd BAF | dDD dcd B2A |\
dDD dcd BAF | BEE EFA B2A :|


